icons/glyphs/glyph-mail.svg

<?xml version="1.0" encoding="UTF-8" standalone="no"?><svg height="16" viewBox="0 0 4.2333332 4.2333332" width="16" xmlns="http://www.w3.org/2000/svg"><sodipodi:namedview/><metadata><rdf:RDF><cc:Work><dc:format>image/svg+xml</dc:format><dc:type/><dc:title/></cc:Work></rdf:RDF></metadata><path d="m .0004102.47102364v2.73056976l1.3708222-1.3708223-1.3593372-1.35974746zm.4345175 0 1.6814654 1.68146546 1.6814653-1.68146546zm3.7865101 0-1.3596105 1.35988416 1.3715059 1.3715058v-2.73138996zm-2.6386891 1.57071676-1.4739142 1.4739141-.1088345.1088347v.1378204h4.2329231v-.1378204l-.1089714-.1088347-1.4737773-1.4739141-.5337813.5332343z" fill="#d0d0d0" stroke-width=".235159"/></svg>

<?xml version="1.0" encoding="UTF-8" standalone="no"?>
<!-- Created with Inkscape (http://www.inkscape.org/) -->

<svg
   xmlns:dc="http://purl.org/dc/elements/1.1/"
   xmlns:cc="http://creativecommons.org/ns#"
   xmlns:rdf="http://www.w3.org/1999/02/22-rdf-syntax-ns#"
   xmlns:svg="http://www.w3.org/2000/svg"
   xmlns="http://www.w3.org/2000/svg"
   xmlns:sodipodi="http://sodipodi.sourceforge.net/DTD/sodipodi-0.dtd"
   xmlns:inkscape="http://www.inkscape.org/namespaces/inkscape"
   width="16"
   height="16"
   viewBox="0 0 4.2333332 4.2333332"
   version="1.1"
   id="svg8"
   inkscape:version="0.92+devel (555a04a4d0, 2017-08-15, custom)"
   sodipodi:docname="glyph-mail.svg">
  <defs
     id="defs2" />
  <sodipodi:namedview
     id="base"
     pagecolor="#002466"
     bordercolor="#ffffff"
     borderopacity="0.41960784"
     inkscape:pageopacity="1"
     inkscape:pageshadow="2"
     inkscape:zoom="25.25"
     inkscape:cx="8"
     inkscape:cy="8"
     inkscape:document-units="px"
     inkscape:current-layer="svg8"
     inkscape:document-rotation="0"
     showgrid="false"
     inkscape:showpageshadow="false"
     borderlayer="true"
     inkscape:window-width="1920"
     inkscape:window-height="1027"
     inkscape:window-x="0"
     inkscape:window-y="24"
     inkscape:window-maximized="1"
     units="px"
     inkscape:pagecheckerboard="false" />
  <metadata
     id="metadata5">
    <rdf:RDF>
      <cc:Work
         rdf:about="">
        <dc:format>image/svg+xml</dc:format>
        <dc:type
           rdf:resource="http://purl.org/dc/dcmitype/StillImage" />
        <dc:title></dc:title>
      </cc:Work>
    </rdf:RDF>
  </metadata>
  <path
     style="fill:#d0d0d0;stroke-width:0.23515882"
     d="M 4.102e-4,0.47102364 V 3.2015934 L 1.3712324,1.8307711 0.0118952,0.47102364 Z m 0.4345175,0 1.6814654,1.68146546 1.6814653,-1.68146546 z m 3.7865101,0 L 2.8618273,1.8309078 4.2333332,3.2024136 V 0.47102364 Z M 1.5827487,2.0417404 0.1088345,3.5156545 0,3.6244892 V 3.7623096 H 4.2329231 V 3.6244892 L 4.1239517,3.5156545 2.6501744,2.0417404 2.1163931,2.5749747 Z"
     id="path1395"
     inkscape:label="#"
     inkscape:connector-curvature="0" />
</svg>
